findly-builder/apps/searchassist/src/assets/icons/resultTemplate/type-6.svg

<svg width="127" height="116" viewBox="0 0 127 116" fill="none" xmlns="http://www.w3.org/2000/svg">
<g filter="url(#filter0_d_477_13551)">
<path d="M6 10.6973C6 8.48813 7.79086 6.69727 10 6.69727H117C119.209 6.69727 121 8.48813 121 10.6973V105.35C121 107.559 119.209 109.35 117 109.35H10C7.79086 109.35 6 107.559 6 105.35V10.6973Z" fill="white"/>
</g>
<rect x="15" y="16.6973" width="97" height="14" fill="#EFF0F1"/>
<rect x="38" y="83.6973" width="73" height="4" fill="#EFF0F1"/>
<rect x="38" y="89.6973" width="73" height="4" fill="#EFF0F1"/>
<path fill-rule="evenodd" clip-rule="evenodd" d="M16.125 81.1973C15.0947 81.1973 14.25 82.042 14.25 83.0723V94.3223C14.25 95.3525 15.0947 96.1973 16.125 96.1973H29.875C30.9053 96.1973 31.75 95.3525 31.75 94.3223V83.0723C31.75 82.042 30.9053 81.1973 29.875 81.1973H16.125ZM16.125 82.4473H29.875C30.2266 82.4473 30.5 82.7207 30.5 83.0723V92.1543L26.495 87.926C26.2934 87.7132 25.9528 87.7187 25.7581 87.9379L23.6787 90.2793L20.289 86.7049C20.0873 86.4923 19.7469 86.4978 19.5523 86.717L15.5 91.2803V83.0723C15.5 82.7207 15.7734 82.4473 16.125 82.4473ZM26.75 83.6973C26.0615 83.6973 25.5 84.2588 25.5 84.9473C25.5 85.6357 26.0615 86.1973 26.75 86.1973C27.4385 86.1973 28 85.6357 28 84.9473C28 84.2588 27.4385 83.6973 26.75 83.6973ZM19.9434 88.1553L26.3838 94.9473H16.125C15.7734 94.9473 15.5 94.6738 15.5 94.3223V93.165L19.9434 88.1553ZM26.1445 89.3809L30.5 93.9707V94.3223C30.5 94.6738 30.2266 94.9473 29.875 94.9473H28.1025L24.543 91.1875L26.1445 89.3809Z" fill="#BDC1C6"/>
<rect x="38" y="39.6973" width="73" height="4" fill="#EFF0F1"/>
<rect x="38" y="45.6973" width="73" height="4" fill="#EFF0F1"/>
<path fill-rule="evenodd" clip-rule="evenodd" d="M16.125 37.1973C15.0947 37.1973 14.25 38.042 14.25 39.0723V50.3223C14.25 51.3525 15.0947 52.1973 16.125 52.1973H29.875C30.9053 52.1973 31.75 51.3525 31.75 50.3223V39.0723C31.75 38.042 30.9053 37.1973 29.875 37.1973H16.125ZM16.125 38.4473H29.875C30.2266 38.4473 30.5 38.7207 30.5 39.0723V48.1543L26.495 43.926C26.2934 43.7132 25.9528 43.7187 25.7581 43.9379L23.6787 46.2793L20.289 42.7049C20.0873 42.4923 19.7469 42.4978 19.5523 42.717L15.5 47.2803V39.0723C15.5 38.7207 15.7734 38.4473 16.125 38.4473ZM26.75 39.6973C26.0615 39.6973 25.5 40.2588 25.5 40.9473C25.5 41.6357 26.0615 42.1973 26.75 42.1973C27.4385 42.1973 28 41.6357 28 40.9473C28 40.2588 27.4385 39.6973 26.75 39.6973ZM19.9434 44.1553L26.3838 50.9473H16.125C15.7734 50.9473 15.5 50.6738 15.5 50.3223V49.165L19.9434 44.1553ZM26.1445 45.3809L30.5 49.9707V50.3223C30.5 50.6738 30.2266 50.9473 29.875 50.9473H28.1025L24.543 47.1875L26.1445 45.3809Z" fill="#BDC1C6"/>
<rect x="38" y="61.6973" width="73" height="4" fill="#EFF0F1"/>
<rect x="38" y="67.6973" width="73" height="4" fill="#EFF0F1"/>
<path fill-rule="evenodd" clip-rule="evenodd" d="M16.125 59.1973C15.0947 59.1973 14.25 60.042 14.25 61.0723V72.3223C14.25 73.3525 15.0947 74.1973 16.125 74.1973H29.875C30.9053 74.1973 31.75 73.3525 31.75 72.3223V61.0723C31.75 60.042 30.9053 59.1973 29.875 59.1973H16.125ZM16.125 60.4473H29.875C30.2266 60.4473 30.5 60.7207 30.5 61.0723V70.1543L26.495 65.926C26.2934 65.7132 25.9528 65.7187 25.7581 65.9379L23.6787 68.2793L20.289 64.7049C20.0873 64.4923 19.7469 64.4978 19.5523 64.717L15.5 69.2803V61.0723C15.5 60.7207 15.7734 60.4473 16.125 60.4473ZM26.75 61.6973C26.0615 61.6973 25.5 62.2588 25.5 62.9473C25.5 63.6357 26.0615 64.1973 26.75 64.1973C27.4385 64.1973 28 63.6357 28 62.9473C28 62.2588 27.4385 61.6973 26.75 61.6973ZM19.9434 66.1553L26.3838 72.9473H16.125C15.7734 72.9473 15.5 72.6738 15.5 72.3223V71.165L19.9434 66.1553ZM26.1445 67.3809L30.5 71.9707V72.3223C30.5 72.6738 30.2266 72.9473 29.875 72.9473H28.1025L24.543 69.1875L26.1445 67.3809Z" fill="#BDC1C6"/>
<defs>
<filter id="filter0_d_477_13551" x="0" y="0.697266" width="127" height="114.652" filterUnits="userSpaceOnUse" color-interpolation-filters="sRGB">
<feFlood flood-opacity="0" result="BackgroundImageFix"/>
<feColorMatrix in="SourceAlpha" type="matrix" values="0 0 0 0 0 0 0 0 0 0 0 0 0 0 0 0 0 0 127 0" result="hardAlpha"/>
<feOffset/>
<feGaussianBlur stdDeviation="3"/>
<feColorMatrix type="matrix" values="0 0 0 0 0 0 0 0 0 0 0 0 0 0 0 0 0 0 0.1 0"/>
<feBlend mode="normal" in2="BackgroundImageFix" result="effect1_dropShadow_477_13551"/>
<feBlend mode="normal" in="SourceGraphic" in2="effect1_dropShadow_477_13551" result="shape"/>
</filter>
</defs>
</svg>

<svg width="127" height="116" fill="none" xmlns="http://www.w3.org/2000/svg"><g filter="url(#a)"><path d="M6 10.697a4 4 0 0 1 4-4h107a4 4 0 0 1 4 4v94.653a4 4 0 0 1-4 4H10a4 4 0 0 1-4-4V10.697Z" fill="#fff"/></g><path fill="#EFF0F1" d="M15 16.697h97v14H15zm23 67h73v4H38zm0 6h73v4H38z"/><path fill-rule="evenodd" clip-rule="evenodd" d="M16.125 81.197c-1.03 0-1.875.845-1.875 1.875v11.25c0 1.03.845 1.875 1.875 1.875h13.75c1.03 0 1.875-.844 1.875-1.875v-11.25c0-1.03-.845-1.875-1.875-1.875h-13.75Zm0 1.25h13.75c.352 0 .625.274.625.625v9.082l-4.005-4.228a.5.5 0 0 0-.737.012l-2.08 2.341-3.389-3.574a.5.5 0 0 0-.737.012L15.5 91.28v-8.208c0-.351.273-.625.625-.625Zm10.625 1.25c-.689 0-1.25.562-1.25 1.25 0 .689.561 1.25 1.25 1.25s1.25-.561 1.25-1.25c0-.688-.561-1.25-1.25-1.25Zm-6.807 4.458 6.44 6.792H16.126a.617.617 0 0 1-.625-.625v-1.157l4.443-5.01Zm6.201 1.226 4.356 4.59v.351a.617.617 0 0 1-.625.625h-1.773l-3.559-3.76 1.602-1.806Z" fill="#BDC1C6"/><path fill="#EFF0F1" d="M38 39.697h73v4H38zm0 6h73v4H38z"/><path fill-rule="evenodd" clip-rule="evenodd" d="M16.125 37.197c-1.03 0-1.875.845-1.875 1.875v11.25c0 1.03.845 1.875 1.875 1.875h13.75c1.03 0 1.875-.845 1.875-1.875v-11.25c0-1.03-.845-1.875-1.875-1.875h-13.75Zm0 1.25h13.75c.352 0 .625.274.625.625v9.082l-4.005-4.228a.5.5 0 0 0-.737.012l-2.08 2.341-3.389-3.574a.5.5 0 0 0-.737.012L15.5 47.28v-8.208c0-.351.273-.625.625-.625Zm10.625 1.25c-.689 0-1.25.562-1.25 1.25 0 .689.561 1.25 1.25 1.25s1.25-.561 1.25-1.25c0-.688-.561-1.25-1.25-1.25Zm-6.807 4.458 6.44 6.792H16.126a.617.617 0 0 1-.625-.625v-1.157l4.443-5.01Zm6.201 1.226 4.356 4.59v.351a.617.617 0 0 1-.625.625h-1.773l-3.559-3.76 1.602-1.806Z" fill="#BDC1C6"/><path fill="#EFF0F1" d="M38 61.697h73v4H38zm0 6h73v4H38z"/><path fill-rule="evenodd" clip-rule="evenodd" d="M16.125 59.197c-1.03 0-1.875.845-1.875 1.875v11.25c0 1.03.845 1.875 1.875 1.875h13.75c1.03 0 1.875-.844 1.875-1.875v-11.25c0-1.03-.845-1.875-1.875-1.875h-13.75Zm0 1.25h13.75c.352 0 .625.274.625.625v9.082l-4.005-4.228a.5.5 0 0 0-.737.012l-2.08 2.341-3.389-3.574a.5.5 0 0 0-.737.012L15.5 69.28v-8.208c0-.351.273-.625.625-.625Zm10.625 1.25c-.689 0-1.25.562-1.25 1.25 0 .689.561 1.25 1.25 1.25s1.25-.561 1.25-1.25c0-.688-.561-1.25-1.25-1.25Zm-6.807 4.458 6.44 6.792H16.126a.617.617 0 0 1-.625-.625v-1.157l4.443-5.01Zm6.201 1.226 4.356 4.59v.351a.617.617 0 0 1-.625.625h-1.773l-3.559-3.76 1.602-1.806Z" fill="#BDC1C6"/><defs><filter id="a" x="0" y=".697" width="127" height="114.652" filterUnits="userSpaceOnUse" color-interpolation-filters="sRGB"><feFlood flood-opacity="0" result="BackgroundImageFix"/><feColorMatrix in="SourceAlpha" values="0 0 0 0 0 0 0 0 0 0 0 0 0 0 0 0 0 0 127 0" result="hardAlpha"/><feOffset/><feGaussianBlur stdDeviation="3"/><feColorMatrix values="0 0 0 0 0 0 0 0 0 0 0 0 0 0 0 0 0 0 0.1 0"/><feBlend in2="BackgroundImageFix" result="effect1_dropShadow_477_13551"/><feBlend in="SourceGraphic" in2="effect1_dropShadow_477_13551" result="shape"/></filter></defs></svg>
